src/pos-icons/google-maps.svg

<svg height="24" viewBox="0 0 24 24" width="24" xmlns="http://www.w3.org/2000/svg"><path d="m15.5 4.5c0 .56.2 1.04.58 1.43.37.39.84.57 1.42.57.55 0 1-.18 1.41-.57.39-.39.59-.87.59-1.43 0-.53-.2-1-.61-1.41-.39-.4-.89-.59-1.39-.59-.55 0-1 .19-1.4.59-.39.41-.6.88-.6 1.41m6.5 0c0 1-.39 2.19-1.14 3.56-.75 1.38-1.5 2.5-2.25 3.38l-1.11 1.31c-.36-.37-.78-.86-1.28-1.45-.5-.6-1.17-1.63-1.99-3.1-.83-1.47-1.23-2.7-1.23-3.7 0-1.25.42-2.31 1.3-3.19.87-.87 1.93-1.31 3.2-1.31 1.23 0 2.3.44 3.17 1.31.88.88 1.33 1.94 1.33 3.19m-1 7.08v7.42c0 .5-.2 1-.61 1.39-.39.41-.89.61-1.39.61h-14c-.5 0-1-.2-1.39-.61-.41-.39-.61-.89-.61-1.39v-14c0-.5.2-1 .61-1.39.39-.41.89-.61 1.39-.61h6.2c-.12.63-.2 1.13-.2 1.5 0 1.19.44 2.59 1.28 4.2.85 1.6 1.56 2.8 2.13 3.51.59.74 1.12 1.37 1.62 1.9l1.47 1.59 1.5-1.59c1.27-1.61 1.94-2.47 2-2.53m-12 2.92v1.39h2.25c-.25 1.11-1 1.64-2.25 1.64-.69 0-1.27-.25-1.73-.75-.47-.5-.71-1.09-.71-1.78s.24-1.28.71-1.78c.46-.5 1.04-.75 1.73-.75.66 0 1.19.2 1.59.61l1.08-1.03c-.75-.69-1.62-1.05-2.62-1.05h-.05c-1.09 0-2.03.41-2.81 1.19s-1.19 1.72-1.19 2.81.41 2.03 1.19 2.81 1.72 1.19 2.81 1.19c1.16 0 2.09-.37 2.79-1.09.71-.72 1.05-1.66 1.05-2.82 0-.28-.01-.48-.04-.59z"/></svg>

<?xml version="1.0" encoding="UTF-8"?><!DOCTYPE svg PUBLIC "-//W3C//DTD SVG 1.1//EN" "http://www.w3.org/Graphics/SVG/1.1/DTD/svg11.dtd"><svg xmlns="http://www.w3.org/2000/svg" xmlns:xlink="http://www.w3.org/1999/xlink" version="1.1" id="mdi-google-maps" width="24" height="24" viewBox="0 0 24 24"><path d="M15.5,4.5C15.5,5.06 15.7,5.54 16.08,5.93C16.45,6.32 16.92,6.5 17.5,6.5C18.05,6.5 18.5,6.32 18.91,5.93C19.3,5.54 19.5,5.06 19.5,4.5C19.5,3.97 19.3,3.5 18.89,3.09C18.5,2.69 18,2.5 17.5,2.5C16.95,2.5 16.5,2.69 16.1,3.09C15.71,3.5 15.5,3.97 15.5,4.5M22,4.5C22,5.5 21.61,6.69 20.86,8.06C20.11,9.44 19.36,10.56 18.61,11.44L17.5,12.75C17.14,12.38 16.72,11.89 16.22,11.3C15.72,10.7 15.05,9.67 14.23,8.2C13.4,6.73 13,5.5 13,4.5C13,3.25 13.42,2.19 14.3,1.31C15.17,0.44 16.23,0 17.5,0C18.73,0 19.8,0.44 20.67,1.31C21.55,2.19 22,3.25 22,4.5M21,11.58V19C21,19.5 20.8,20 20.39,20.39C20,20.8 19.5,21 19,21H5C4.5,21 4,20.8 3.61,20.39C3.2,20 3,19.5 3,19V5C3,4.5 3.2,4 3.61,3.61C4,3.2 4.5,3 5,3H11.2C11.08,3.63 11,4.13 11,4.5C11,5.69 11.44,7.09 12.28,8.7C13.13,10.3 13.84,11.5 14.41,12.21C15,12.95 15.53,13.58 16.03,14.11L17.5,15.7L19,14.11C20.27,12.5 20.94,11.64 21,11.58M9,14.5V15.89H11.25C11,17 10.25,17.53 9,17.53C8.31,17.53 7.73,17.28 7.27,16.78C6.8,16.28 6.56,15.69 6.56,15C6.56,14.31 6.8,13.72 7.27,13.22C7.73,12.72 8.31,12.47 9,12.47C9.66,12.47 10.19,12.67 10.59,13.08L11.67,12.05C10.92,11.36 10.05,11 9.05,11H9C7.91,11 6.97,11.41 6.19,12.19C5.41,12.97 5,13.91 5,15C5,16.09 5.41,17.03 6.19,17.81C6.97,18.59 7.91,19 9,19C10.16,19 11.09,18.63 11.79,17.91C12.5,17.19 12.84,16.25 12.84,15.09C12.84,14.81 12.83,14.61 12.8,14.5H9Z" /></svg>
